X: 1
T:The 48th Highlanders of Canada
M:C|
L:1/8
Q:80
C:P/M F. Beaton
S:Slow March
K:HP
|: {g}A/2d/2|
{g}f{e}f3/4g/4{fg}f{g}A/2d/2|
{g}f/2a/2A/2f/2{gef}e{a}g3/4e/4|  !
{gcd}c{gef}e3/4c/4{G}A{ag}a|
B/2d/2{gde}d/2c/2{G}Aa3/4g/4|
{g}f{e}f3/4g/4{fg}f{g}A/2d/2|  !
{g}f/2a/2A/2f/2{gef}e{a}g3/4e/4|
{gcd}c{gef}e3/4c/4{G}A{ag}a3/4f/4|
{Gdc}d2{gdc}d:| |:  !
{g}c3/4d/4|
{g}e{A}e3/4d/4{gcd}c{ag}a|
{ef}ec{GdG}ce|  !
{ag}ac3/4d/4{gef}eA3/4B/4|
{GdG}c{g}d3/4c/4{gBG}B{g}c3/4d/4|
{gef}e{ag}a{fg}f{ag}a|  !
{ef}e{g}d3/4c/4{gBG}Be|
{ag}a{fg}f3/4d/4{gcd}c{gef}e3/4c/4|
{gBd}B2{G}A:|  !
